!!!COM:	Martini, Johannes
!!!CDT:	~1440///-~1497//
!!!OTL:	Domine non secundum
!!!AGN:	Motet
!!!SCT:	Mar2036
!!!SCA:	Mar2036
!!!voices:	3
**kern	**kern	**kern
*staff3	*staff2	*staff1
*Ivox	*Ivox	*Ivox
*I"Bassus	*I"Tenor	*I"Superius
*I'B	*I'T	*I'S
*>[A,B,C]	*>[A,B,C]	*>[A,B,C]
*>A	*>A	*>A
*clefF4	*clefGv2	*clefG2
*k[]	*k[]	*k[]
*M2/1	*M2/1	*M2/1
*met(C|)	*met(C|)	*met(C|)
!!section: Domine, non secundum
!!!OMD: Domine, non secundum
=1-	=1-	=1-
[0D	1.D	[0d
.	2E/	.
=2	=2	=2
1D]	1F	0d]
1GG	1G	.
=3	=3	=3
0AA	0E	0c
=4	=4	=4
0D	1D	0d
.	1F	.
=5	=5	=5
0AA	1E	1c
.	[1A	1A
=6	=6	=6
0E	1A]	0B
.	1G#i	.
=7	=7	=7
0AA	0A	1A
.	.	1c
=8	=8	=8
1.A	1.F	1d
.	.	2c/
2F\	2D/	[2d/
=9	=9	=9
2A\	2F/	2d/]
2B\	2G/	4c/
.	.	4B/
1G	1E	2.c/
.	.	4d/
=10	=10	=10
1A	1AA	2e/
.	.	1f
2AA/	1A	.
[2C/	.	[2e/
=11	=11	=11
2C/]	2G/	2e/]
2D\	2F/	1d
1AA	1E	.
.	.	2c#i/
=12	=12	=12
1A	[0D	0d
2A\	.	.
[2F\	.	.
=13	=13	=13
2F\]	0D]	1r
2E\	.	.
2.D\	.	1d
4C/	.	.
=14	=14	=14
1AA	1A	1c
1GG	1B	1d
=15	=15	=15
0AA	1.c	1c
.	.	[1A
.	2d\	.
=16	=16	=16
0A	1e	1A]
.	1A	1c
=17	=17	=17
1G	1B-	1d
2F\	1A	[1f
[2D\	.	.
=18	=18	=18
2D\]	1.D	2f/]
1BB-	.	4e/
.	.	4d/
.	.	2f/
2C/	2E/	[2e/
=19	=19	=19
2D\	2F/	4e/]
.	.	4d/
2GG/	2G/	1d
1AA	1E	.
.	.	2c#i/
=20	=20	=20
1r	0D	0d
1BB-	.	.
=21	=21	=21
1AA	1.A	1r
[1C	.	[1e
.	2B\	.
=22	=22	=22
2C/]	1c	1e]
2BB/	.	.
1GG	1B	1d
=23	=23	=23
1r	1.A	1e
1D	.	1f
.	4G/	.
.	4F/	.
=24	=24	=24
0C	1.E	1.g
.	2F/	4f/
.	.	4e/
=25	=25	=25
1BB	1G	1d
1AA	2.A/	1c
.	4B\	.
=26	=26	=26
1.AA	2c\	1r
.	2d\	.
.	1e	1c
2BB/	.	.
=27	=27	=27
1C	2c\	1e
.	1A	.
1D	.	1f
.	2F/	.
=28	=28	=28
1r	2G/	2e/
.	2D/	2d/
1D	1F	2A/
.	.	[2d/
=29	=29	=29
1AA	1E	2d/]
.	.	2c#i/
1A	1D	1d
=30	=30	=30
1D	2r	1f
.	1d	.
1E	.	1g
.	2c\	.
=31	=31	=31
1D	1d	1f
2r	2A/	2f/
2GG/	2B\	[2g/
=32	=32	=32
2AA/	2c\	2g/]
2BB/	4B\	1f
.	4A/	.
1C	1G	.
.	.	2e/
=33	=33	=33
1r	1F	0f
1F	1r	.
=34	=34	=34
2A\	1C	0r
1G	.	.
.	1E	.
4F\	.	.
4E\	.	.
=35	=35	=35
2D\	1F	0r
1A	.	.
.	1D	.
2B-i\	.	.
=36	=36	=36
2A\	1F	0r
4G\	.	.
4F\	.	.
2E\	2G/	.
[2F\	[2A/	.
=37	=37	=37
4F\]	4A/]	0r
4E\	4G/	.
1D	2F/	.
.	1E	.
2C#i/	.	.
=38	=38	=38
1D	1D	1d
[1G	1r	1d
=39	=39	=39
2G\]	0r	2d/
4F\	.	1d
4E\	.	.
2F\	.	.
2G\	.	2e/
=40	=40	=40
2A\	0r	2f/
2B-i\	.	2.g/
2G\	.	.
.	.	4f/
[2A\	.	4e/
.	.	4d/
=41	=41	=41
2A\]	0r	2e/
2F\	.	1d
1E	.	.
.	.	2c#i/
=42	=42	=42
0D	1D	0d
.	1F	.
=43	=43	=43
2C/	2E/	1r
2AA/	1A	.
1BB	.	1d
.	2G#i/	.
=44	=44	=44
1AA	1A	1c
1A	1D	1d
=45	=45	=45
1D	1d	1f
1E	2B\	1g
.	[2c\	.
=46	=46	=46
2r	2c\]	2e/
2D\	2d\	2f/
2E\	2B\	2g/
[2F\	2A/	[2a/
=47	=47	=47
2F\]	2c\	4a/]
.	.	4g/
2F\	2A/	1f
1C	1G	.
.	.	2e/
=48	=48	=48
1r	1F	1f
1F	1A	1r
=49	=49	=49
1E	2B\	0r
.	1c	.
1F	.	.
.	[2d\	.
=50	=50	=50
1G	2d\]	0r
.	2B\	.
1F	2A/	.
.	[2c\	.
=51	=51	=51
1E	4c\]	0r
.	4B\	.
.	2.G/	.
1C	.	.
.	4F/	.
.	2E/	.
=52	=52	=52
1D	2D/	0r
.	1d	.
1E	.	.
.	2c#i\	.
=53	=53	=53
1D	2d\	1f
.	1A	.
2AA/	.	2f/
2C/	2G/	[2e/
=54	=54	=54
2D\	2F/	2e/]
2BB/	2D/	1d
1AA	1E	.
.	.	2c#i/
=55	=55	=55
2r	2.D/	1d
2.A\	.	.
.	4C/	.
.	1AA	2c/
4G\	.	.
4F\	.	[2A/
4E\	.	.
=56	=56	=56
1F	1D	2A/]
.	.	2d/
2E\	2E/	2c/
2D\	2F/	[2d/
=57	=57	=57
2GG/	1G	2d/]
2C/	.	1e
2AA/	1A	.
[2D\	.	[2f/
=58	=58	=58
2D\]	2F/	4f/]
.	.	4e/
2GG/	2G/	1d
1AA	1E	.
.	.	2c#i/
=59	=59	=59
0Al	0Dl	0dl
=60||	=60||	=60||
*>B	*>B	*>B
!!section: Domine, ne memineris
!!!OMD: Domine, ne memineris
0D	1.d	1.f
.	4c\	2e/
.	4B\	.
=61	=61	=61
1D	1A	1f
1G	1B	1g
=62	=62	=62
2C/	1c	2g/
1F	.	1a
.	2A/	.
2E\	2c\	2g/
=63	=63	=63
2D\	2d\	2f/
2E\	2B\	2.g/
2C/	2c\	.
.	.	4f/
2F\	2A/	[2f/
=64	=64	=64
1C	1G	2f/]
.	.	2e/
1D	1F	1f
=65	=65	=65
1r	1D	1f
1C	[1G	2e/
.	.	2c/
=66	=66	=66
1BB	1G]	1d
1AA	1A	1c
=67	=67	=67
1r	2B\	2d/
.	2c\	2e/
1D	2d\	1f
.	[2A/	.
=68	=68	=68
2C/	2A/]	2e/
2D\	2F/	1d
1AA	1E	.
.	.	2c#i/
=69	=69	=69
1A	1D	0d
1F	1r	.
=70	=70	=70
2G\	1C	0r
2.A\	.	.
.	1F	.
4G\	.	.
4F\	.	.
4E\	.	.
=71	=71	=71
1D	1F	0r
2D\	2F/	.
[2E\	[2G/	.
=72	=72	=72
2E\]	4G/]	0r
.	4E/	.
2C/	1A	.
1BB	.	.
.	2G#i/	.
=73	=73	=73
1AA	1A	0r
2BB/	1G	.
2C/	.	.
=74	=74	=74
1D	1F	0r
2C/	2E/	.
[2AA/	2F/	.
=75	=75	=75
2AA/]	2E/	0r
1D	2D/	.
.	1E	.
2C#i/	.	.
=76	=76	=76
1D	1.D	1d
1r	.	1d
.	[2d\	.
=77	=77	=77
1D	2d\]	1f
.	4c\	.
.	4B\	.
1A	1c	1e
=78	=78	=78
1D	1d	2d/
.	.	1f
1r	1A	.
.	.	2e/
=79	=79	=79
0r	2B-\	2d/
.	2.A/	2c/
.	.	2A/
.	4G/	.
.	2F/	[2d/
=80	=80	=80
0r	1E	2d/]
.	.	2c#i/
.	1D	1d
=81	=81	=81
1D	1r	1f
1D	1d	[1a
=82	=82	=82
1F	1c	2a/]
.	.	4g/
.	.	4a/
1D	1d	4b-i\
.	.	4a/
.	.	4g/
.	.	4f/
=83	=83	=83
1C	2e\	2e/
.	1c	2.g/
1E	.	.
.	.	4a/
.	2B\	[2b\
=84	=84	=84
1E	1G	4b\]
.	.	4a/
.	.	1g
1D	1A	.
.	.	2f#i/
=85	=85	=85
1E	1G	1g
1F	2r	1c
.	2A/	.
=86	=86	=86
1G	2B\	2r
.	2.d\	2d/
2F\	.	2f/
.	4c\	.
2E\	[2c\	2g/
=87	=87	=87
1D	2c\]	2a/
.	2B\	4g/
.	.	4f/
1C	1c	1e
=88	=88	=88
0F	1.A	1c
.	.	1c
.	2B\	.
=89	=89	=89
1E	1c	1e
1D	1d	1f
=90	=90	=90
1G	1B-	1d
2D\	1A	2d/
2F\	.	2c/
=91	=91	=91
2D\	2F/	2d/
1C	1G	2.e/
.	.	4d/
2D\	2F/	[2d/
=92	=92	=92
1AA	1E	2d/]
.	.	2c#i/
1r	1D	1d
=93	=93	=93
1A	1D	0r
2B-i\	1D	.
[2A\	.	.
=94	=94	=94
4A\]	1D	0r
4G\	.	.
2F\	.	.
2E\	1C	.
2G\	.	.
=95	=95	=95
2F\	2D/	0r
1D	2F/	.
.	1E	.
2C#i/	.	.
=96	=96	=96
1D	1D	1d
1AA	1r	1c
=97	=97	=97
2r	1D	2d/
1A	.	1f
.	1C	.
2G\	.	2e/
=98	=98	=98
2.F\	2D/	2f/
.	1F	2a/
4E\	.	.
2C/	.	2g/
2G\	2E/	2b-i\
=99	=99	=99
2A\	2F/	2a/
2c\	2A/	4g/
.	.	4f/
2B-i\	2G/	2e/
2d\	2B-\	2d/
=100	=100	=100
2c\	2A/	1f
4B-i\	4G/	.
4A\	4F/	.
1G	2.E/	1r
.	4D/	.
=101	=101	=101
1F	1F	1f
[1D	2r	1f
.	[2A/	.
=102	=102	=102
2D\]	2A/]	1f
2F\	1d	.
1E	.	1g
.	2c#i\	.
=103	=103	=103
1D	2.d\	1f
.	4c\	.
[1D	2A/	[1f
.	[2B\	.
=104	=104	=104
2D\]	4B\]	2f/]
.	4A/	.
2C/	1A	2e/
1BB	.	1d
.	2G#i/	.
=105	=105	=105
1AA	1.A	2.c/
.	.	4d/
2r	.	4e/
.	.	4f/
2GG/	2B\	[2g/
=106	=106	=106
2AA/	2c\	4g/]
.	.	4f/
2D\	2F/	1f
1C	1G	.
.	.	2e/
=107	=107	=107
1r	1F	1f
1F	1D	1r
=108	=108	=108
1F	1r	1a
1F	1A	[1cc
=109	=109	=109
1E	1G	2cc\]
.	.	2b\
1F	2A/	1a
.	2c\	.
=110	=110	=110
1G	2B\	2g/
.	2.d\	2.b\
1F	.	.
.	4c\	4a/
.	2A/	[2a/
=111	=111	=111
1G	1B	2a/]
.	.	2g/
1D	2A/	2a/
.	2B\	4g/
.	.	4f/
=112	=112	=112
1C	2c\	1e
.	2.e\	.
1D	.	1f
.	4d\	.
.	[2d\	.
=113	=113	=113
1E	2d\]	2.g/
.	2c\	.
.	.	4a/
1D	2d\	2b-i\
.	[2f\	[2a/
=114	=114	=114
0A	2f\]	2a/]
.	4e\	4g/
.	4d\	4f/
.	2.c#i\	1e
.	4B\	.
=115	=115	=115
0Dl	0dl	0dl
=116||	=116||	=116||
*>C	*>C	*>C
!!section: Adjuva nos
!!!OMD: Adjuva nos
1F	0r	1f
1E	.	1g
=117	=117	=117
1D	1F	1a
1GG	1G	1b-i
=118	=118	=118
1.D	1A	2a/
.	.	1a
.	1B-i	.
2E\	.	2g/
=119	=119	=119
4F\	2A/	1a
4E\	.	.
4D\	1A	.
4C/	.	.
2D\	.	1r
2E\	2G/	.
=120	=120	=120
2AA/	1A	1a
2.D\	.	.
.	1r	1a
4E\	.	.
2F\	.	.
=121	=121	=121
2G\	0r	2.g/
2.E\	.	.
.	.	4f/
.	.	2g/
4D\	.	.
2C/	.	[2a/
=122	=122	=122
1BB	0r	2a/]
.	.	2g#i/
1AA	.	1a
=123	=123	=123
2.A\	1F	0r
4B\	.	.
2c\	1F	.
[2d\	.	.
=124	=124	=124
2d\]	1D	0r
1A	.	.
.	1F	.
[2d\	.	.
=125	=125	=125
4d\]	2G/	0r
4c\	.	.
4B\	1A	.
4A\	.	.
1B	.	.
.	2G#i/	.
=126	=126	=126
2A\	1A	1.a
1F	.	.
.	1c	.
2E\	.	2g/
=127	=127	=127
2.D\	1d	1f
4C/	.	.
1AA	2c\	2e/
.	2A/	[2f/
=128	=128	=128
0r	2.B-\	4f/]
.	.	4e/
.	.	4d/
.	4A/	4c/
.	4G/	2d/
.	4F/	.
.	2G/	[2e/
=129	=129	=129
0r	2A/	4e/]
.	.	4d/
.	2F/	1d
.	1E	.
.	.	2c#i/
=130	=130	=130
1D	0D	0d
1F	.	.
=131	=131	=131
1E	0r	1r
2D\	.	1d
[2F\	.	.
=132	=132	=132
4F\]	0r	1f
4E\	.	.
1D	.	.
.	.	1e
2C#i/	.	.
=133	=133	=133
2D\	1D	2d/
1A	.	2.f/
.	1F	.
.	.	4e/
2F\	.	[2d/
=134	=134	=134
2.G\	1E	2d/]
.	.	2c#i/
4A\	.	.
2B-i\	2D/	1d
[2A\	[2F/	.
=135	=135	=135
4A\]	4F/]	0r
4G\	4E/	.
2F\	1D	.
1E	.	.
.	2C#i/	.
=136	=136	=136
2D\	1D	1d
2F\	.	.
2G\	1r	[1e
[2A\	.	.
=137	=137	=137
4A\]	1r	1e]
4B\	.	.
2c\	.	.
2A\	1D	1d
[2d\	.	.
=138	=138	=138
2d\]	0E	0r
4c#i\	.	.
4B\	.	.
1c#i	.	.
=139	=139	=139
1d	1D	1f
1D	[1A	[1f
=140	=140	=140
1D	2A/]	2f/]
.	2B\	4e/
.	.	4d/
1C	1c	1e
=141	=141	=141
1D	2A/	1a
.	1d	.
1E	.	1g
.	2c\	.
=142	=142	=142
1D	2d\	2f/
.	2f\	1d
1r	1e	.
.	.	2c#i/
=143	=143	=143
1D	2d\	1d
.	1f	.
1D	.	2r
.	4e\	[2a/
.	4d\	.
=144	=144	=144
1F	2c\	4a/]
.	.	4b\
.	4B\	2.cc\
.	4A/	.
1E	1G	.
.	.	4b\
.	.	4a/
.	.	4g/
=145	=145	=145
1D	1A	2.f/
.	.	4e/
1E	1G	2.g/
.	.	4f/
=146	=146	=146
1D	1d	1f
1C	2G/	1e
.	[2c\	.
=147	=147	=147
1E	4c\]	1g
.	4B\	.
.	2c\	.
1D	2A/	2f/
.	2d\	[2b-i\
=148	=148	=148
2E\	2c\	4b-\]
.	.	4a/
2F\	2A/	1a
1G	1B-i	.
.	.	2g/
=149	=149	=149
0D	0A	1.a
.	.	4g/
.	.	4f/
=150	=150	=150
1C	1c	2.e/
.	.	4f/
1r	1c	2g/
.	.	[2a/
=151	=151	=151
0r	2c\	4a/]
.	.	4b\
.	1e	2cc\
.	.	2b\
.	[2f\	[2a/
=152	=152	=152
0r	4f\]	4a/]
.	4e\	4g/
.	1d	2f/
.	.	1e
.	2c#i\	.
=153	=153	=153
0r	2d\	1d
.	2.D/	.
.	.	1d
.	4E/	.
.	2F/	.
=154	=154	=154
0r	2G/	1e
.	2A/	.
.	2.B-\	1d
.	4A/	.
=155	=155	=155
0r	4G/	2d/
.	4F/	.
.	2E/	2c/
.	2D/	2d/
.	2C/	[2e/
=156	=156	=156
0r	2F/	4e/]
.	.	4d/
.	2G/	1d
.	1E	.
.	.	2c#i/
=157	=157	=157
*M3/1	*M3/1	*M3/1
*met(3)	*met(3)	*met(3)
0.A	0.D	0.d
=158	=158	=158
1D	0A	0.r
1C	.	.
1D	1B	.
=159	=159	=159
1.F	1A	0.r
.	1.G	.
2D\	.	.
1E	.	.
.	2F/	.
=160	=160	=160
1F	1D	0.r
1A	1C	.
1B-	1D	.
=161	=161	=161
1A	1.F	0.r
0G	.	.
.	2D/	.
.	1E	.
=162	=162	=162
0F	0F	0f
1E	1c	1g
=163	=163	=163
0D	1.d	0f
.	2c\	.
1D	2B\	1f
.	2A/	.
=164	=164	=164
1C	0A	1e
0BB	.	0d
.	1G#i	.
=165	=165	=165
0AA	0A	0c
1GG	1B	1d
=166	=166	=166
1.D	1A	1.f
.	0d	.
2C/	.	2e/
1D	.	1d
=167	=167	=167
1AA	0c	0e
1C	.	.
1D	1B	1r
=168	=168	=168
1E	1G	0g
0D	0A	.
.	.	1f
=169	=169	=169
1E	1G	1g
1D	0d	1f
[1G	.	[1d
=170	=170	=170
1G]	1B	1d]
1E	1c	1e
1D	1d	1f
=171	=171	=171
1C	1A	1.a
1D	0B	.
.	.	2g#i/
1E	.	2.g#i/
.	.	4f#i/
=172	=172	=172
1AA	1A	1a
1BB	1D	1f
1C	1E	1e
=173	=173	=173
1D	1F	0d
1GG	1G	.
1AA	1E	1c
=174	=174	=174
1BB-	1D	1d
1C	1G	1e
1FF	1A	1f
=175	=175	=175
1GG	1G	0d
0AA	0E	.
.	.	1c#
=176	=176	=176
0.Al	0.Dl	0.dl
==	==	==
*-	*-	*-
!!!RDF**kern: l=long note in original notation
!!!RDF**kern: i=editorial accidental
!!!ENC:	Chris Gage 09-11-2014
!!!END:	2014/10/09/
!!!EED:	Jesse Rodin
!!!EEV:	2014/10/17/
!!!ONB:	Translated from MusicXML and edited on 2014/10/17/ by Craig Sapp
!!muse2ps: C^@{COM}^i2I150v85,85,150Q16
